!!!OTL: "Hochzeitslied" HEUT SAND NACHBARSLEUT WIEDER ALL VOLL FREUD
!!!ARE: Europa, Mitteleuropa, Deutschland, Bayern
!!!SCT: Z1325
!!!YEM: Copyright 1995, estate of Helmut Schaffrath.
**kern
*ICvox
*Ivox
*M3/4
*k[f#]
*G:
{8b
8g
=1
8f#
8a
8a
8d
8f#
8a
=2
8cc
8b
8b
8d}
{8g
8b
=3
8dd
8cc
8cc
8d
8f#
8a
=4
4g
4r}
{8b
8g
=5
8f#
8a
8a
8d
8f#
8a
=6
8cc
8b
8b
8d}
{8g
8b
=7
8dd
8cc
8cc
8d
8f#
8a
=8
4g
4r}
{8f#
8a
=9
8ee
8dd
8dd
8d
8f#
8a
=10
8cc
8b
8b
8d}
{8g
8b
=11
8dd
8cc
8cc
8d
8f#
8a
=12
4b
4r}
{8f#
8a
=13
8ee
8dd
8dd
8d
8f#
8a
=14
8cc
8b
8b
8d}
{8g
8b
=15
8dd
8cc
8cc
8d
8f#
8a
=16
4g
4r}
{12b
12a
12g
=17
8f#
8a
4.a
8cc
=18
8ee
8dd
4.b}
{8g
=19
8dd
8cc
4.a
8f#
=20
8cc
8b
4g}
{12b
12a
12g
=21
8f#
8a
4.a
8cc
=22
8ee
8dd
4.b}
{8g
=23
8dd
8cc
8a
8cc
8f#
8a
=24
4g
4r}
==
!!!AGN: Zech -, Schalks -, Hochzeits - Lied; Staende -, Bauern - Lied, Jodler
!!!ONB: ESAC (Essen Associative Code) Database: ZUCCAL
!!!AMT: simple triple
!!!AIN: vox
!!!EED: Helmut Schaffrath
!!!EEV: 1.0
*-
